X: 34120
T: Reel Drouin
R: reel
M: 4/4
K: Amajor
efed cdeg|[M:3/2]fefg abaf edcA|E2G B2 BGB A3A|
[M:4/4]efed cdeg|[M:3/2]fefg abaf edcA|[M:4/4] E2GB A3A:|
[M:3/2]A,2C E2 ECE DB,DB,|A,2C E2ECE DB,G,B,|[M:2/4]A,3B,|[M:3/2]A,2C E2 ECE DB,DB,|
[1 A,2C E2ECE DB,G,B,|[M:2/4]A,3B,:|2 A,3B, CDE3 ECE|[M:4/4 ] DB,G,B, A,4||

